fa/svgs/regular/compass.svg

<svg xmlns="http://www.w3.org/2000/svg" viewBox="0 0 512 512"><!--! Font Awesome Free 6.1.1 by @fontawesome - https://fontawesome.com License - https://fontawesome.com/license/free (Icons: CC BY 4.0, Fonts: SIL OFL 1.1, Code: MIT License) Copyright 2022 Fonticons, Inc.--><path d="m306.7 325.1-144.3 55.5c-20.3 7.5-38.5-11.6-31-31l55.5-144.3c3.2-8.5 9.9-15.2 18.4-18.4l144.3-55.5c19.4-7.5 38.5 10.7 31 31l-55.5 144.3c-3.2 8.5-9.9 15.2-18.4 18.4zM255.1 224c-16.8 0-32 14.3-32 32s15.2 32 32 32c18.6 0 32.9-14.3 32.9-32s-14.3-32-32.9-32zM512 256c0 141.4-114.6 256-256 256S0 397.4 0 256 114.6 0 256 0s256 114.6 256 256zM256 48C141.1 48 48 141.1 48 256s93.1 208 208 208 208-93.1 208-208S370.9 48 256 48z"/></svg>

<svg xmlns="http://www.w3.org/2000/svg" viewBox="0 0 512 512"><!--! Font Awesome Free 6.2.1 by @fontawesome - https://fontawesome.com License - https://fontawesome.com/license/free (Icons: CC BY 4.0, Fonts: SIL OFL 1.1, Code: MIT License) Copyright 2022 Fonticons, Inc. --><path d="M306.7 325.1L162.4 380.6C142.1 388.1 123.9 369 131.4 349.6L186.9 205.3C190.1 196.8 196.8 190.1 205.3 186.9L349.6 131.4C369 123.9 388.1 142.1 380.6 162.4L325.1 306.7C321.9 315.2 315.2 321.9 306.7 325.1V325.1zM255.1 224C238.3 224 223.1 238.3 223.1 256C223.1 273.7 238.3 288 255.1 288C273.7 288 288 273.7 288 256C288 238.3 273.7 224 255.1 224V224zM512 256C512 397.4 397.4 512 256 512C114.6 512 0 397.4 0 256C0 114.6 114.6 0 256 0C397.4 0 512 114.6 512 256zM256 48C141.1 48 48 141.1 48 256C48 370.9 141.1 464 256 464C370.9 464 464 370.9 464 256C464 141.1 370.9 48 256 48z"/></svg>
